img/icon/list-before-1.svg

<svg width="40" height="40" viewBox="0 0 40 40" fill="none" xmlns="http://www.w3.org/2000/svg">
<path fill-rule="evenodd" clip-rule="evenodd" d="M33.3156 7.0589V3.33156C33.3132 1.49254 31.823 0.00233209 29.984 0H3.33156C1.49254 0.00233209 0.00233209 1.49254 0 3.33156V17.9904C0.00516392 19.692 1.29498 21.1151 2.98774 21.2876L5.4924 27.7893C6.15405 29.5061 8.08202 30.3613 9.79894 29.7005L25.4398 23.6754C24.359 26.4984 24.6665 29.6652 26.2697 32.2276L26.6525 32.8398V39.3124C26.6525 39.6805 26.9506 39.9787 27.3188 39.9787H39.3124C39.6805 39.9787 39.9787 39.6805 39.9787 39.3124V17.3183C39.9724 15.014 39.055 12.8062 37.4259 11.1765L33.3156 7.0589ZM33.3156 11.0438L35.3378 16.2933C35.7341 17.3238 35.2206 18.48 34.1903 18.8766L33.0344 19.323C33.2189 18.9029 33.3146 18.4488 33.3156 17.9904V11.0438ZM1.33262 3.33156V17.9904C1.33262 19.0941 2.22781 19.9893 3.33156 19.9893H23.3056L20.7036 17.1474C19.4231 15.7198 19.5063 13.5343 20.8909 12.2072C22.2751 10.8809 24.4623 10.8912 25.8342 12.2315L31.9376 18.3356C31.9626 18.2219 31.9778 18.1067 31.9829 17.9904V7.58179L31.9771 7.56663H31.9829V3.33156C31.9829 2.22781 31.0878 1.33262 29.984 1.33262H3.33156C2.22781 1.33262 1.33262 2.22781 1.33262 3.33156ZM9.86874 21.322L5.1306 23.1462L4.42964 21.322H9.86874ZM6.73574 27.3101C7.1327 28.3402 8.28958 28.8538 9.3197 28.4567L25.393 22.2621L24.5269 21.318H13.5654V21.322L5.61167 24.387L6.73574 27.3101ZM27.9851 38.6461V33.3156H38.6461V38.6461H27.9851ZM27.6886 31.9829H38.6461V17.3183C38.6407 15.3678 37.863 13.4991 36.4837 12.1202L34.3252 9.95719L36.5805 15.8134C37.2405 17.5298 36.3856 19.4561 34.6702 20.1179L33.9865 20.3845L36.4519 22.8498L35.5097 23.792L24.8919 13.1766C24.037 12.3251 22.6586 12.3114 21.7865 13.1463C20.9148 13.981 20.869 15.3588 21.6833 16.25L27.1435 22.2068C27.3394 22.4204 27.3747 22.7362 27.2308 22.9877C25.7103 25.6457 25.7749 28.9249 27.3996 31.5212L27.6886 31.9829ZM9.32836 7.59595C9.32836 8.55277 8.55277 9.32836 7.59595 9.32836H4.39765C3.44083 9.32836 2.66525 8.55277 2.66525 7.59595V4.39765C2.66525 3.44083 3.44083 2.66525 4.39765 2.66525H7.59595C8.55277 2.66525 9.32836 3.44083 9.32836 4.39765V7.59595ZM3.99787 6.66311V7.59595C3.99787 7.81666 4.17694 7.99574 4.39765 7.99574H7.59595C7.81666 7.99574 7.99574 7.81666 7.99574 7.59595V6.66311H6.66311V5.33049H7.99574V4.39765C7.99574 4.17694 7.81666 3.99787 7.59595 3.99787H4.39765C4.17694 3.99787 3.99787 4.17694 3.99787 4.39765V5.33049H5.33049V6.66311H3.99787ZM5.9968 11.3273H3.33156V12.6599H5.9968V11.3273ZM3.33156 15.3252H5.9968V16.6578H3.33156V15.3252ZM17.9904 15.3252H15.3252V16.6578H17.9904V15.3252ZM7.32942 11.3273H9.99467V12.6599H7.32942V11.3273ZM13.9925 11.3273H11.3273V12.6599H13.9925V11.3273ZM15.3252 11.3273H17.9904V12.6599H15.3252V11.3273ZM29.3177 3.33156H27.9851V5.33049H29.3177V3.33156ZM25.3198 3.33156H26.6525V5.33049H25.3198V3.33156ZM23.9872 3.33156H22.6546V5.33049H23.9872V3.33156ZM19.9893 3.33156H21.322V5.33049H19.9893V3.33156ZM30.6503 35.9808V34.6482H29.3177V35.9808H30.6503Z" fill="white"/>
</svg>

<svg width="40" height="40" fill="none" xmlns="http://www.w3.org/2000/svg"><path fill-rule="evenodd" clip-rule="evenodd" d="M33.316 7.059V3.332A3.336 3.336 0 0029.984 0H3.332A3.336 3.336 0 000 3.332V17.99a3.325 3.325 0 002.988 3.298l2.504 6.501A3.332 3.332 0 009.8 29.701l15.64-6.026a9.632 9.632 0 00.83 8.553l.384.612v6.472c0 .369.298.667.666.667h11.993a.666.666 0 00.667-.667V17.318a8.72 8.72 0 00-2.553-6.142l-4.11-4.117zm0 3.985l2.022 5.25a1.999 1.999 0 01-1.148 2.583l-1.156.446c.185-.42.28-.874.282-1.333v-6.946zM1.333 3.332V17.99a2 2 0 001.999 2h19.974l-2.602-2.843a3.555 3.555 0 015.13-4.915l6.104 6.104c.025-.114.04-.23.045-.346V7.582l-.006-.015h.006V3.332a2 2 0 00-1.999-2H3.332a2 2 0 00-2 2zm8.536 17.99L5.13 23.146l-.701-1.824h5.439zM6.736 27.31a1.999 1.999 0 002.584 1.147l16.073-6.195-.866-.944H13.565v.004l-7.953 3.065 1.124 2.923zm21.25 11.336v-5.33h10.66v5.33h-10.66zm-.297-6.663h10.957V17.318a7.38 7.38 0 00-2.162-5.198l-2.159-2.163 2.255 5.856a3.332 3.332 0 01-1.91 4.305l-.684.267 2.466 2.465-.942.942-10.618-10.615a2.222 2.222 0 00-3.209 3.073l5.46 5.957c.196.213.232.53.088.78a8.309 8.309 0 00.169 8.534l.289.462zM9.329 7.596c0 .957-.776 1.732-1.733 1.732H4.398a1.732 1.732 0 01-1.733-1.732V4.398c0-.957.776-1.733 1.733-1.733h3.198c.957 0 1.732.776 1.732 1.733v3.198zm-5.331-.933v.933c0 .22.179.4.4.4h3.198a.4.4 0 00.4-.4v-.933H6.663V5.33h1.333v-.932a.4.4 0 00-.4-.4H4.398a.4.4 0 00-.4.4v.932H5.33v1.333H3.998zm1.999 4.664H3.332v1.333h2.665v-1.333zm-2.665 3.998h2.665v1.333H3.332v-1.333zm14.658 0h-2.665v1.333h2.665v-1.333zM7.33 11.327h2.665v1.333H7.329v-1.333zm6.662 0h-2.665v1.333h2.665v-1.333zm1.333 0h2.665v1.333h-2.665v-1.333zm13.993-7.995h-1.333V5.33h1.333V3.332zm-3.998 0h1.332V5.33H25.32V3.332zm-1.333 0h-1.332V5.33h1.332V3.332zm-3.998 0h1.333V5.33h-1.333V3.332zM30.65 35.98v-1.333h-1.332v1.333h1.332z" fill="#fff"/></svg>
